X:1
T:Eighth of January
M:2/4
L:1/8
K:D
e/a/|f/e/f/a/ f/e/d/f/|e/f/e/d/ BB/d/|ee/f/ e/d/B/A/|d/B/A/F/ De/a/|
f/e/f/a/ f/e/d/f/|e/f/e/d/ B/d/e/f/|a/f/e/a/ f/e/c/A/|d/B/A/F/ D:|
|:A/A/|AA/B/ AA/A/|A/d/B/A/ F/E/D/F/|AA/B/ AA/d/|B/A/F/E/ DD/F/|
AA/B/ AA/A/|A/d/B/A/ F/E/D/F/|AA/A/ A/d/f/e/|d/B/A/F/ D:|
